X: 1
T:Carmel Mackinnon's Jig
M:6/8
L:1/8
Q:130
C:David South (c 1990)
S:The David South Collection of Scottish Dance Music
R:Jig
N:A long-standing family friend from the Scottish Country Dancing
N:scene in Brisbane.
K:D
"A7"A|"D"DED DFA|"D"d2A "D7"BAF|
"G"BAG "D/F#"AFD|"Em7"B,ED "A7"CB,A,|!
"D"DED DFA|"D"d2A "B7"BAF|
"Em7"GFE "A7"cBc|"D"d3 d2:|!
"A7"g|"D"f/g/ag "D7/A"fed|"G"bag "D"fed|
"G"BAG "D"A<dF|"Em7"GBe "A7"cBA|!
"D"f/g/ag "D7/A"fed|"G"bag "D"fed|
"Em7"B2d "A7"c/d/ec|"D"d3 d2"A7"g|!
"D"f/g/ag "D7/A"fed|"G"bag "D"fed|
"G"BAG "D/F#"AGF|"Em"GB,E "A7"CB,A,|!
"D"DED "A7/E"E<CE|"D7/F#"FED "G"GAB|
"D/A"A2d "A7"cBc|"D"d3 d2|]
